X:1
T:Lenten Gospel Acclamation
T:Cesar Franck Text and mel. adapted by Andris Solims 
T:Lenten Gospel Acclamation
T:(in e)
T:Religious
T:Religious
T:Religious
C:Cesar Franck
C:
C:Text and mel. adapted by
C:Andris Solims
Z:Religious
%%score { ( 1 2 ) | ( 3 4 ) }
L:1/8
Q:1/4=70
M:4/4
K:G
V:1 treble nm="P1"
V:2 treble 
V:3 bass 
V:4 bass 
V:1
"^R."!f!"^Maestoso" E2"^Instrument change" FF G2 A2 | %1
w: Glo- ry and * praise|
"^Instrument change" G2"^Instrument change" F2 !fermata!E4 || %2
w: you, O Christ!|
"^(Fifth Sunday of Lent)""^(First Sunday of Lent)""^V." E16 F2 x2 G4 | %3
w: * Man~does~not~live~from~the~bread a-|
"^Instrument change" F16 E2 F2 G2 F2 !fermata!E4 || %4
w: but~on~every~word~that~comes * * from mouth of|
[M:4/4]"^(\"B\")""^(\"A\")""^R.""^If a man serves me, says the Lord, |                                        he must fol - low  me;    wherever    I   am,   my   servant      will   be     the  -  re   too.""^I am the resurrection and the life, says the Lord;  who       ever       believes      in         me   will    ne  - ver  die.""^or: (gregor. mel.)""^Seek good  and  not evil so that you   may  live,   and that the Lord God of hosts may real - ly      be   with you.""^(\"C\")" AAAG FF F2 | %5
w: * Praise * you, * Lord Je-|
"^Instrument change" FGGF (E"^-"D) !fermata!D2 ||"^(Fourth Sunday of Lent)""^V." B16 A2 G2 A4 | %7
w: king of * end- less * ry!||
"^Instrument change" F2 G2 A16 G2 F2 E4"^life.""^or:" D4 || %8
w: |
[M:3/4]"^(\"B\")""^(\"C\")""^R.""^God loved the world so much |                         that he gave his  on  -  ly   Son;    e -very- one who believes  in  him       has   e -  ternal   life.""^I will leave this place |                         and go to my fa-ther  and   say: \"Fa- ther, I have sinned against heaven  and   a -  gainst  you.\"""^I am the light of  the  world,    says   the  Lord;   a -  ny - one who follows me will       have the light of  life.""^or: (gregor. mel.)""^(\"A\")" (3GGG GA G2 | %9
w: Glo- ry to you, O Christ,|
"^Instrument change" (3FGA (3(AG)F !fermata!E2 ||"^(Passion - Palm Sunday)""^V." G16 A2 x2 B4 | %11
w: you are the * Word of God!|* Christ~was~humb- ler|
"^Instrument change" A16 (G2 F2) G2 F2 E4 |"^Instrument change" E16 F2 x2 G4 | %13
w: even~~~~~to~~~~~accepting~~~~~death, * * * death on|But~~~~God~~~~raised * him|
"^Instrument change" F16 E2 F2 G2 F2 !fermata!E4 || %14
w: * * * and~~~gave~~~him~~~the~~~name~~~which * is|
[K:F][M:4/4]"^Andante"[Q:1/4=80]"^SOPRANO    ALTO" A2 d2"^Instrument change" A2 B2 | %15
w: Praise and ho- nor,|
"^Instrument change" G2 d2"^Instrument change" G2 A2 | %16
w: praise and ho- nor|
"^Instrument change" (FG)"^Instrument change" A2 (GF E2) | %17
w: to * you, Lord _ _|
"^Instrument change" (FG)"^Instrument change" A2 (GF E2 |"^Instrument change" D8) |] %19
w: Je- * sus Christ! _ _|_|
[K:G][M:4/4]"^Andante"[Q:1/4=80]"^SOPRANO    ALTO" B2 e2 B2 c2 | %20
w: Praise and ho- nor,|
"^Instrument change" A2 e2"^Instrument change" A2 B2 | %21
w: praise and ho- nor|
"^Instrument change" (GA)"^Instrument change" B2 (AG F2) | %22
w: * to you, Lord _ _|
"^Instrument change" (GA)"^Instrument change" B2 (AG F2 |"^Instrument change" E8) |] %24
w: Je- * sus Christ! _ _|_|
V:2
 E2 ^DD E2 E2 | E^C ^D2 B,4 || x24 | x28 ||[M:4/4] x8 | x8 || x24 | x32 ||[M:3/4] x6 | x6 || x24 | %11
w: |||||||||||
 x28 | x24 | x28 ||[K:F][M:4/4] F4 F4 | E4 E4 | D4 ^C4 | D4 =B,2 ^C2 | x8 |][K:G][M:4/4] G4 G4 | %20
w: |||Praise and|ho- nor|to you,|Lord Je- sus||Praise and|
 F4 F4 | E4 ^D4 | E4 ^C2 ^D2 | x8 |] %24
w: ho- nor|to you,|Lord Je- sus||
V:3
 G,2 A,A, B,2 C2 | B,2 A,2 G,4 || z24 | z28 ||[M:4/4] z8 | z8 || z24 | z32 ||[M:3/4] z6 | z6 || %10
w: ||||||||||
w: ||||||||||
 z24 | z28 | z24 | z28 ||[K:F][M:4/4][K:bass]"^TENOR  BASS" D4 D4 | B,4 B,4 | A,2 F,2 B,2 G,2 | %17
w: |||||||
w: ||||Praise and|ho- nor|to you, Lord _|
 A,2 F,2 G,4 | F,8 |][K:G][M:4/4]"^TENOR  BASS" E4 E4 | C4 C4 | B,2 G,2 C2 A,2 | B,2 G,2 A,4 | %23
w: ||||||
w: Je- sus Christ!|_|Praise and|ho- nor|to you, Lord _|Je- sus Christ!|
 G,8 |] %24
w: |
w: _|
V:4
 E,2 E,E, E,D,C,A,, | B,,2 B,,2 !fermata!E,4 || x24 | x28 ||[M:4/4] x8 | x8 || x24 | x32 || %8
w: ||||||||
w: ||||||||
[M:3/4] x6 | x6 || x24 | x28 | x24 | x28 ||[K:F][M:4/4][K:bass] D,4 D,4 | D,4 D,4 | D,4 D,4 | %17
w: |||||||||
w: ||||||Praise and|ho- nor|to you,|
 D,4 G,,2 A,,2 | D,8 |][K:G][M:4/4] E,4 E,4 | E,4 E,4 | E,4 E,4 | E,4 A,,2 B,,2 | E,8 |] %24
w: |||||||
w: Lord Je- sus|Christ!|Praise and|ho- nor|to you,|Lord Je- sus|Christ!|

